vendor/shopware/storefront/Resources/app/storefront/dist/assets/icon/default/arrow-down.svg

<svg xmlns="http://www.w3.org/2000/svg" width="24" height="24" viewBox="0 0 24 24">
  <path fill="#758CA3" fill-rule="evenodd" d="M13,20.5857864 L17.2928932,16.2928932 C17.6834175,15.9023689 18.3165825,15.9023689 18.7071068,16.2928932 C19.0976311,16.6834175 19.0976311,17.3165825 18.7071068,17.7071068 L12.7071068,23.7071068 C12.3165825,24.0976311 11.6834175,24.0976311 11.2928932,23.7071068 L5.29289322,17.7071068 C4.90236893,17.3165825 4.90236893,16.6834175 5.29289322,16.2928932 C5.68341751,15.9023689 6.31658249,15.9023689 6.70710678,16.2928932 L11,20.5857864 L11,1 C11,0.44771525 11.4477153,0 12,0 C12.5522847,0 13,0.44771525 13,1 L13,20.5857864 Z"/>
</svg>

<svg xmlns="http://www.w3.org/2000/svg" width="24" height="24" viewBox="0 0 24 24"><path fill="#758CA3" fill-rule="evenodd" d="m13 20.5858 4.2929-4.293c.3905-.3904 1.0237-.3904 1.4142 0 .3905.3906.3905 1.0238 0 1.4143l-6 6c-.3905.3905-1.0237.3905-1.4142 0l-6-6c-.3905-.3905-.3905-1.0237 0-1.4142.3905-.3905 1.0237-.3905 1.4142 0L11 20.5858V1c0-.5523.4477-1 1-1s1 .4477 1 1v19.5858z"/></svg>
